Sources/FrostedUI/Resources/Icons.xcassets/cube12.imageset/cube-12.svg

<svg width="12" height="12" viewBox="0 0 12 12" fill="none" xmlns="http://www.w3.org/2000/svg" data-fui-icon="true">
  <g clip-path="url(#clip0_1078_146)">
    <path
      d="M6 0C6.39453 0 6.78106 0.109823 7.11719 0.316406L10.6172 2.46777C11.1656 2.80489 11.5 3.40217 11.5 4.0459V7.9541C11.5 8.59783 11.1656 9.19511 10.6172 9.53223L7.11719 11.6836C6.78106 11.8902 6.39453 12 6 12C5.60547 12 5.21894 11.8902 4.88281 11.6836L1.38281 9.53223C0.834409 9.19511 0.5 8.59783 0.5 7.9541V4.0459C0.500002 3.40217 0.83441 2.80489 1.38281 2.46777L4.88281 0.316406C5.21894 0.109822 5.60547 0 6 0ZM6 1.5C5.88279 1.5 5.76783 1.53239 5.66797 1.59375L2.16797 3.74512C2.06354 3.80931 2 3.92332 2 4.0459V7.9541C2 8.07668 2.06354 8.19069 2.16797 8.25488L5.66797 10.4062C5.76783 10.4676 5.88279 10.5 6 10.5C6.11721 10.5 6.23217 10.4676 6.33203 10.4062L9.83203 8.25488C9.93646 8.19069 10 8.07668 10 7.9541V4.0459C10 3.92332 9.93646 3.80931 9.83203 3.74512L6.33203 1.59375C6.23217 1.53239 6.1172 1.5 6 1.5ZM2.82324 4.23828C3.02045 3.87432 3.47571 3.7396 3.83984 3.93652L5.99805 5.10352L8.15625 3.93652C8.52042 3.73943 8.9756 3.87425 9.17285 4.23828C9.36983 4.6025 9.23425 5.05773 8.87012 5.25488L6.74609 6.4043V8.93164C6.74609 9.34585 6.41031 9.68164 5.99609 9.68164C5.58208 9.6814 5.24609 9.34571 5.24609 8.93164V6.40234L3.12598 5.25488C2.76207 5.05771 2.62648 4.60239 2.82324 4.23828Z"
      fill="currentColor"
    />
  </g>
  <defs>
    <clipPath id="clip0_1078_146"><path fill="currentColor" d="M0 0H12V12H0z" /></clipPath>
  </defs>
</svg>

<svg xmlns="http://www.w3.org/2000/svg" width="12" height="12" fill="none" data-fui-icon="true" viewBox="0 0 12 12"><g clip-path="url(#a)"><path fill="currentColor" d="M6 0c.395 0 .781.11 1.117.316l3.5 2.152c.549.337.883.934.883 1.578v3.908c0 .644-.334 1.241-.883 1.578l-3.5 2.152a2.13 2.13 0 0 1-2.234 0l-3.5-2.152A1.85 1.85 0 0 1 .5 7.954V4.046c0-.644.334-1.241.883-1.578l3.5-2.152A2.13 2.13 0 0 1 6 0m0 1.5a.63.63 0 0 0-.332.094l-3.5 2.151a.35.35 0 0 0-.168.3v3.91c0 .122.064.236.168.3l3.5 2.151a.63.63 0 0 0 .664 0l3.5-2.151a.35.35 0 0 0 .168-.3v-3.91a.35.35 0 0 0-.168-.3l-3.5-2.151A.63.63 0 0 0 6 1.5M2.823 4.238a.75.75 0 0 1 1.017-.301l2.158 1.167 2.158-1.167a.75.75 0 1 1 .714 1.318l-2.124 1.15v2.527a.75.75 0 1 1-1.5 0v-2.53l-2.12-1.147a.75.75 0 0 1-.303-1.017"/></g><defs><clipPath id="a"><path fill="currentColor" d="M0 0h12v12H0z"/></clipPath></defs></svg>
